static/images/android_stack_logo.svg

<svg fill="none" height="89" viewBox="0 0 134 89" width="134" xmlns="http://www.w3.org/2000/svg" xmlns:xlink="http://www.w3.org/1999/xlink"><clipPath id="a"><path d="m0 0h134v89h-134z"/></clipPath><clipPath id="b"><path d="m-6 0h146v77h-146z"/></clipPath><g clip-path="url(#a)"><path d="m0 0h134v89h-134z" fill="#fff"/><path d="m73.1992 11.5996h48.8008v74.8008h-48.8008z" fill="#fff"/><g clip-path="url(#b)"><path d="m85.8763 65.4922c-1.8835 0-3.4156-1.5096-3.4156-3.3642s1.5321-3.3631 3.4156-3.3631c1.8836 0 3.4156 1.5085 3.4156 3.3631s-1.532 3.3642-3.4156 3.3642zm-37.7543 0c-1.8836 0-3.4156-1.5096-3.4156-3.3642s1.532-3.3631 3.4156-3.3631c1.8834 0 3.4155 1.5085 3.4155 3.3631s-1.5321 3.3642-3.4155 3.3642zm38.9794-20.2594 6.8267-11.6414c.3913-.6691.1585-1.5238-.52-1.9102-.6784-.3854-1.5476-.1561-1.94.5119l-6.9121 11.7888c-5.2858-2.3752-11.2223-3.6982-17.5569-3.6982-6.3345 0-12.271 1.323-17.5568 3.6982l-6.9121-11.7888c-.3925-.668-1.2616-.8973-1.9401-.5119-.6784.3864-.9123 1.2411-.5199 1.9102l6.8267 11.6414c-11.7223 6.2776-19.7396 17.9627-20.9125 31.7677h82.0296c-1.174-13.805-9.1914-25.4901-20.9126-31.7677z" fill="#3ddb85"/></g></g></svg>

<svg width="134" height="89" viewBox="0 0 134 89" fill="none" xmlns="http://www.w3.org/2000/svg">
<g clip-path="url(#clip0_6351_671)">
<rect width="134" height="89" fill="white"/>
<rect x="73.1992" y="11.5996" width="48.8008" height="74.8008" fill="white"/>
<g clip-path="url(#clip1_6351_671)">
<path d="M85.8763 65.4922C83.9928 65.4922 82.4607 63.9826 82.4607 62.128C82.4607 60.2734 83.9928 58.7649 85.8763 58.7649C87.7599 58.7649 89.2919 60.2734 89.2919 62.128C89.2919 63.9826 87.7599 65.4922 85.8763 65.4922ZM48.122 65.4922C46.2384 65.4922 44.7064 63.9826 44.7064 62.128C44.7064 60.2734 46.2384 58.7649 48.122 58.7649C50.0054 58.7649 51.5375 60.2734 51.5375 62.128C51.5375 63.9826 50.0054 65.4922 48.122 65.4922ZM87.1014 45.2328L93.9281 33.5914C94.3194 32.9223 94.0866 32.0676 93.4081 31.6812C92.7297 31.2958 91.8605 31.5251 91.4681 32.1931L84.556 43.9819C79.2702 41.6067 73.3337 40.2837 66.9991 40.2837C60.6646 40.2837 54.7281 41.6067 49.4423 43.9819L42.5302 32.1931C42.1377 31.5251 41.2686 31.2958 40.5901 31.6812C39.9117 32.0676 39.6778 32.9223 40.0702 33.5914L46.8969 45.2328C35.1746 51.5104 27.1573 63.1955 25.9844 77.0005H108.014C106.84 63.1955 98.8226 51.5104 87.1014 45.2328Z" fill="#3DDB85"/>
</g>
</g>
<defs>
<clipPath id="clip0_6351_671">
<rect width="134" height="89" fill="white"/>
</clipPath>
<clipPath id="clip1_6351_671">
<rect width="146" height="77" fill="white" transform="translate(-6)"/>
</clipPath>
</defs>
</svg>
